assets/icons/qvision/grid_off.svg

<svg width="24" height="24" viewBox="0 0 24 24" fill="none" xmlns="http://www.w3.org/2000/svg">
<g clip-path="url(#clip0_147_3493)">
<path d="M8 3.99999V5.44999L10 7.44999V3.99999H14V7.99999H10.55L12.55 9.99999H14V11.45L16 13.45V9.99999H20V14H16.55L18.55 16H20V17.45L22 19.45V3.99999C22 2.89999 21.1 1.99999 20 1.99999H4.55L6.55 3.99999H8ZM16 3.99999H20V7.99999H16V3.99999ZM1.27 1.26999L0 2.54999L2 4.54999V20C2 21.1 2.9 22 4 22H19.46L21.46 24L22.73 22.73L1.27 1.26999ZM10 12.55L11.45 14H10V12.55ZM4 6.54999L5.45 7.99999H4V6.54999ZM8 20H4V16H8V20ZM8 14H4V9.99999H7.45L8 10.55V14ZM14 20H10V16H13.45L14 16.54V20ZM16 20V18.54L17.46 20H16Z" fill="#323232"/>
</g>
<defs>
<clipPath id="clip0_147_3493">
<rect width="24" height="24" fill="white"/>
</clipPath>
</defs>
</svg>

<svg xmlns="http://www.w3.org/2000/svg" height="24" viewBox="0 0 24 24" width="24"><path d="M0 0h24v24H0z" fill="none"/><path d="M8 4v1.45l2 2V4h4v4h-3.45l2 2H14v1.45l2 2V10h4v4h-3.45l2 2H20v1.45l2 2V4c0-1.1-.9-2-2-2H4.55l2 2H8zm8 0h4v4h-4V4zM1.27 1.27L0 2.55l2 2V20c0 1.1.9 2 2 2h15.46l2 2 1.27-1.27L1.27 1.27zM10 12.55L11.45 14H10v-1.45zm-6-6L5.45 8H4V6.55zM8 20H4v-4h4v4zm0-6H4v-4h3.45l.55.55V14zm6 6h-4v-4h3.45l.55.54V20zm2 0v-1.46L17.46 20H16z"/></svg>
